icons/logo-menu.svg

<svg width="22" height="24" viewBox="0 0 22 24" fill="none" xmlns="http://www.w3.org/2000/svg">
<path d="M15.0105 18.1826C14.9233 18.1826 14.8396 18.2172 14.7779 18.2787C14.7161 18.3403 14.6813 18.4238 14.6811 18.5109C14.6811 18.7476 14.5209 18.9404 14.3242 18.9404H7.88411C7.68738 18.9404 7.52716 18.7476 7.52716 18.5109C7.52313 18.4264 7.48671 18.3468 7.42545 18.2884C7.36419 18.2301 7.28279 18.1975 7.19815 18.1975C7.1135 18.1975 7.03211 18.2301 6.97085 18.2884C6.90959 18.3468 6.87317 18.4264 6.86914 18.5109C6.86914 19.0974 7.30583 19.5738 7.84909 19.5939V20.0406C7.7679 20.0483 7.69253 20.086 7.63767 20.1463C7.58282 20.2066 7.55242 20.2851 7.55242 20.3666C7.55242 20.448 7.58282 20.5266 7.63767 20.5869C7.69253 20.6472 7.7679 20.6849 7.84909 20.6926V21.1392C7.76728 21.146 7.69101 21.1833 7.63542 21.2436C7.57982 21.3039 7.54896 21.3829 7.54896 21.4649C7.54896 21.5469 7.57982 21.6259 7.63542 21.6862C7.69101 21.7465 7.76728 21.7838 7.84909 21.7906V21.8754C7.84948 22.1442 7.95654 22.4018 8.1468 22.5919C8.33706 22.7819 8.59499 22.8888 8.86406 22.8892H9.78588V23.1565C9.78647 23.3755 9.87394 23.5853 10.0291 23.7401C10.1843 23.8948 10.3945 23.9818 10.6138 23.982H11.5923C11.8114 23.9816 12.0214 23.8945 12.1765 23.7398C12.3315 23.5851 12.4188 23.3753 12.4194 23.1565V22.887H13.3413C13.6103 22.8866 13.8683 22.7797 14.0585 22.5896C14.2488 22.3996 14.3558 22.1419 14.3562 21.8732V21.7831C14.4292 21.7669 14.4945 21.7263 14.5413 21.6681C14.5881 21.6098 14.6136 21.5374 14.6136 21.4627C14.6136 21.388 14.5881 21.3155 14.5413 21.2573C14.4945 21.199 14.4292 21.1584 14.3562 21.1422V20.6852C14.4292 20.669 14.4945 20.6284 14.5413 20.5701C14.5881 20.5119 14.6136 20.4394 14.6136 20.3647C14.6136 20.29 14.5881 20.2176 14.5413 20.1593C14.4945 20.1011 14.4292 20.0605 14.3562 20.0443V19.5939C14.8987 19.5738 15.3354 19.0974 15.3354 18.5109C15.3354 18.4245 15.3013 18.3415 15.2405 18.2801C15.1797 18.2186 15.097 18.1836 15.0105 18.1826ZM11.7607 23.1565C11.7607 23.2013 11.7429 23.2443 11.7111 23.2759C11.6794 23.3076 11.6364 23.3254 11.5915 23.3254H10.6138C10.5689 23.3254 10.5259 23.3076 10.4942 23.2759C10.4625 23.2443 10.4446 23.2013 10.4446 23.1565V22.887H11.7614L11.7607 23.1565ZM13.3413 22.2297H8.86406C8.76945 22.2295 8.67877 22.1919 8.61187 22.1251C8.54497 22.0583 8.5073 21.9677 8.50711 21.8732V21.7913H9.01757C9.06209 21.7934 9.10658 21.7865 9.14835 21.7709C9.19011 21.7554 9.22828 21.7315 9.26054 21.7008C9.29279 21.67 9.31848 21.6331 9.33602 21.5922C9.35357 21.5512 9.36261 21.5072 9.36261 21.4627C9.36261 21.4181 9.35357 21.3741 9.33602 21.3332C9.31848 21.2922 9.29279 21.2553 9.26054 21.2246C9.22828 21.1938 9.19011 21.17 9.14835 21.1544C9.10658 21.1388 9.06209 21.1319 9.01757 21.134H8.50711V20.6956H9.01757C9.10493 20.6956 9.18871 20.6609 9.25048 20.5992C9.31225 20.5375 9.34695 20.4538 9.34695 20.3666C9.34695 20.2793 9.31225 20.1956 9.25048 20.1339C9.18871 20.0722 9.10493 20.0376 9.01757 20.0376H8.50711V19.5991H13.6975V20.0376H13.0775C12.9901 20.0376 12.9063 20.0722 12.8445 20.1339C12.7828 20.1956 12.7481 20.2793 12.7481 20.3666C12.7481 20.4538 12.7828 20.5375 12.8445 20.5992C12.9063 20.6609 12.9901 20.6956 13.0775 20.6956H13.6975V21.134H13.0775C13.0329 21.1319 12.9884 21.1388 12.9467 21.1544C12.9049 21.17 12.8667 21.1938 12.8345 21.2246C12.8022 21.2553 12.7766 21.2922 12.759 21.3332C12.7415 21.3741 12.7324 21.4181 12.7324 21.4627C12.7324 21.5072 12.7415 21.5512 12.759 21.5922C12.7766 21.6331 12.8022 21.67 12.8345 21.7008C12.8667 21.7315 12.9049 21.7554 12.9467 21.7709C12.9884 21.7865 13.0329 21.7934 13.0775 21.7913H13.6975V21.8732C13.6971 21.9674 13.6594 22.0576 13.5927 22.1241C13.5259 22.1906 13.4355 22.228 13.3413 22.2282V22.2297Z" fill="#F4698F" fill-opacity="0.97"/>
<path d="M11.6519 20.0361H10.4446C10.3573 20.0361 10.2735 20.0708 10.2117 20.1325C10.1499 20.1942 10.1152 20.2778 10.1152 20.3651C10.1152 20.4524 10.1499 20.536 10.2117 20.5977C10.2735 20.6594 10.3573 20.6941 10.4446 20.6941H11.6519C11.7392 20.6941 11.823 20.6594 11.8848 20.5977C11.9465 20.536 11.9812 20.4524 11.9812 20.3651C11.9812 20.2778 11.9465 20.1942 11.8848 20.1325C11.823 20.0708 11.7392 20.0361 11.6519 20.0361Z" fill="#F4698F" fill-opacity="0.97"/>
<path d="M11.6528 21.1325H10.4456C10.361 21.1365 10.2812 21.1729 10.2228 21.2341C10.1644 21.2953 10.1318 21.3766 10.1318 21.4612C10.1318 21.5457 10.1644 21.627 10.2228 21.6882C10.2812 21.7494 10.361 21.7858 10.4456 21.7898H11.6528C11.6973 21.7919 11.7418 21.785 11.7836 21.7694C11.8253 21.7539 11.8635 21.73 11.8958 21.6993C11.928 21.6686 11.9537 21.6316 11.9712 21.5907C11.9888 21.5497 11.9978 21.5057 11.9978 21.4612C11.9978 21.4166 11.9888 21.3726 11.9712 21.3317C11.9537 21.2907 11.928 21.2538 11.8958 21.2231C11.8635 21.1923 11.8253 21.1685 11.7836 21.1529C11.7418 21.1373 11.6973 21.1304 11.6528 21.1325Z" fill="#F4698F" fill-opacity="0.97"/>
<path d="M11.7921 4.39846C11.7463 4.39388 11.7001 4.39894 11.6564 4.41333C11.6127 4.42771 11.5726 4.45109 11.5385 4.48197C11.5044 4.51284 11.4772 4.55051 11.4586 4.59254C11.4401 4.63458 11.4305 4.68004 11.4307 4.72598V18.0628C11.4307 18.15 11.4654 18.2337 11.5271 18.2954C11.5889 18.3571 11.6727 18.3918 11.76 18.3918H13.1119C13.4458 18.3912 13.7659 18.2584 14.002 18.0224C14.2381 17.7865 14.3709 17.4666 14.3713 17.1331V16.181C14.3727 16.0821 14.3983 15.985 14.4458 15.8982C14.4933 15.8115 14.5614 15.7376 14.644 15.683C15.497 15.1055 16.1953 14.3281 16.6781 13.4188C17.1608 12.5094 17.4132 11.4958 17.4132 10.4665C17.4132 7.27097 15.0494 4.71854 11.7921 4.39846ZM14.2744 15.1389C14.1029 15.2538 13.9621 15.4088 13.8643 15.5904C13.7665 15.772 13.7147 15.9748 13.7132 16.181V17.1331C13.713 17.2923 13.6496 17.445 13.5369 17.5576C13.4241 17.6702 13.2713 17.7336 13.1119 17.7338H12.0894V5.09891C14.8139 5.53064 16.7552 7.73545 16.7552 10.4665C16.7551 11.3885 16.5289 12.2964 16.0964 13.1109C15.664 13.9254 15.0384 14.6217 14.2744 15.1389Z" fill="#F4698F" fill-opacity="0.97"/>
<path d="M15.1755 11.2466C15.1344 11.2331 15.0911 11.2279 15.048 11.2311C15.0049 11.2344 14.9629 11.2461 14.9243 11.2656C14.8858 11.2851 14.8515 11.312 14.8233 11.3447C14.7952 11.3775 14.7738 11.4155 14.7604 11.4565C14.6279 11.8586 14.424 12.2336 14.1583 12.5634C14.1291 12.5968 14.107 12.6357 14.0933 12.6778C14.0796 12.7199 14.0745 12.7644 14.0784 12.8085C14.0823 12.8526 14.0951 12.8955 14.116 12.9346C14.1369 12.9736 14.1654 13.0081 14.1999 13.0359C14.2345 13.0636 14.2743 13.0842 14.3169 13.0962C14.3596 13.1083 14.4043 13.1116 14.4483 13.106C14.4922 13.1004 14.5346 13.0859 14.5729 13.0636C14.6112 13.0412 14.6445 13.0113 14.671 12.9758C14.9855 12.5849 15.2268 12.1406 15.3834 11.6642C15.3972 11.6231 15.4028 11.5798 15.3998 11.5366C15.3968 11.4934 15.3853 11.4512 15.366 11.4124C15.3467 11.3736 15.3199 11.339 15.2873 11.3106C15.2546 11.2821 15.2166 11.2604 15.1755 11.2466Z" fill="#F4698F" fill-opacity="0.97"/>
<path d="M13.6862 6.9293C13.6494 6.90512 13.6081 6.88855 13.5647 6.88059C13.5214 6.87263 13.4769 6.87344 13.4339 6.88296C13.3909 6.89248 13.3502 6.91053 13.3143 6.93602C13.2784 6.96152 13.248 6.99396 13.2248 7.03141C13.2017 7.06886 13.1863 7.11057 13.1796 7.15407C13.1729 7.19756 13.175 7.24196 13.1858 7.28463C13.1966 7.32731 13.2158 7.36738 13.2423 7.4025C13.2689 7.43761 13.3022 7.46705 13.3404 7.48906C13.7906 7.76284 14.1691 8.13965 14.4447 8.58838C14.7203 9.0371 14.8851 9.54488 14.9255 10.0698C14.9322 10.1521 14.9696 10.2289 15.0303 10.2851C15.091 10.3412 15.1706 10.3724 15.2533 10.3727H15.2802C15.3665 10.365 15.4463 10.3235 15.5021 10.2572C15.5579 10.191 15.5853 10.1054 15.5783 10.0192C15.5306 9.3912 15.3342 8.78354 15.0053 8.24631C14.6763 7.70908 14.2242 7.25766 13.6862 6.9293Z" fill="#F4698F" fill-opacity="0.97"/>
<path d="M7.51746 15.6927L7.56367 15.6853C7.64546 15.7397 7.71272 15.8132 7.7596 15.8995C7.80648 15.9857 7.83157 16.0821 7.83269 16.1803V17.1331C7.83288 17.4668 7.96558 17.7868 8.20168 18.0229C8.43778 18.259 8.75799 18.3919 9.09208 18.3925H10.4439C10.5312 18.3925 10.615 18.3579 10.6768 18.2962C10.7386 18.2345 10.7733 18.1508 10.7733 18.0635V5.6639C10.774 5.49453 10.735 5.32735 10.6594 5.17574C10.5838 5.02412 10.4738 4.89228 10.3381 4.79076C10.2017 4.68763 10.0432 4.61761 9.87504 4.58622C9.7069 4.55482 9.53376 4.56292 9.3693 4.60987C9.19716 4.659 9.02651 4.71632 8.86107 4.77885C8.60898 4.67551 8.33917 4.62216 8.06668 4.62178C7.51274 4.62261 6.98107 4.83974 6.58522 5.2268C6.18936 5.61386 5.9607 6.14018 5.94806 6.69335C5.62442 6.76858 5.32299 6.91869 5.06807 7.13158C4.81314 7.34448 4.61184 7.61421 4.48039 7.91904C4.34893 8.22388 4.291 8.55529 4.31126 8.88659C4.33151 9.21788 4.42939 9.53979 4.597 9.82639C4.22094 10.2184 4.01032 10.74 4.0088 11.283C4.00727 11.8259 4.21495 12.3486 4.5888 12.7428C4.7654 12.9288 4.97418 13.0813 5.20509 13.1931C5.14681 13.499 5.15674 13.8138 5.23418 14.1154C5.31162 14.4169 5.45466 14.6977 5.65311 14.9377C5.85157 15.1777 6.10055 15.3711 6.38235 15.504C6.66415 15.637 6.97182 15.7062 7.28347 15.7069C7.36166 15.7062 7.43976 15.7015 7.51746 15.6927ZM5.8333 13.744C5.8206 13.6243 5.82285 13.5036 5.84 13.3844C5.9345 13.3986 6.02987 13.4061 6.12542 13.4068C6.40033 13.4064 6.67258 13.3531 6.92726 13.2497C7.0061 13.2155 7.06844 13.1519 7.10096 13.0724C7.13348 12.9929 7.13361 12.9039 7.10132 12.8243C7.06902 12.7448 7.00687 12.681 6.92812 12.6465C6.84938 12.6121 6.76028 12.6098 6.67985 12.6401C6.37559 12.7645 6.03825 12.7829 5.72225 12.6923C5.40624 12.6017 5.13 12.4074 4.93807 12.1408C4.74615 11.8742 4.64973 11.5508 4.66437 11.2227C4.67902 10.8946 4.80387 10.5811 5.01879 10.3326C5.0553 10.3646 5.09331 10.3973 5.12982 10.4271C5.34935 10.5982 5.60075 10.7241 5.86941 10.7973C6.13807 10.8705 6.41862 10.8897 6.69476 10.8536C6.82007 10.8367 6.94355 10.8083 7.06363 10.7688C7.23884 11.2498 7.58314 11.6509 8.0324 11.8972C8.10899 11.939 8.19904 11.9486 8.28275 11.924C8.36647 11.8995 8.43698 11.8427 8.47878 11.7662C8.52058 11.6897 8.53025 11.5997 8.50565 11.5161C8.48105 11.4325 8.42421 11.3621 8.34762 11.3203C8.00752 11.1341 7.75515 10.8209 7.64578 10.4492C7.53641 10.0776 7.57897 9.67774 7.76413 9.33734C7.80375 9.26093 7.81182 9.17205 7.78661 9.08977C7.76141 9.00748 7.70493 8.93833 7.62929 8.89715C7.55365 8.85596 7.46487 8.84602 7.38197 8.86944C7.29908 8.89287 7.22867 8.9478 7.18585 9.02247C7.00306 9.3584 6.91522 9.73768 6.93173 10.1197C6.82756 10.1589 6.71933 10.1863 6.60906 10.2015C6.41818 10.2263 6.2243 10.2131 6.03851 10.1629C5.85273 10.1127 5.6787 10.0263 5.5264 9.90872C5.37409 9.79116 5.24651 9.64474 5.15097 9.47784C5.05542 9.31095 4.99379 9.12686 4.9696 8.93612C4.92604 8.58792 5.00925 8.23568 5.20406 7.94367C5.39887 7.65165 5.69228 7.43932 6.03078 7.34542C6.14532 7.7265 6.36481 8.06775 6.6642 8.33021C6.72972 8.38776 6.81544 8.41695 6.90251 8.41137C6.98957 8.40578 7.07085 8.36588 7.12847 8.30044C7.18608 8.23499 7.2153 8.14937 7.20971 8.0624C7.20412 7.97543 7.16418 7.89424 7.09866 7.8367C6.87496 7.64048 6.71653 7.38077 6.64451 7.09224C6.57249 6.80371 6.59032 6.5001 6.69561 6.22195C6.80091 5.94381 6.98865 5.70438 7.23377 5.53563C7.4789 5.36688 7.76973 5.27685 8.06743 5.27757C8.296 5.27671 8.52151 5.33003 8.72544 5.43314C8.78265 5.46189 8.847 5.4734 8.91065 5.46627C8.97429 5.45913 9.03448 5.43365 9.08389 5.39295C9.23293 5.33563 9.39091 5.28352 9.54741 5.23886C9.61438 5.21974 9.6849 5.21651 9.75334 5.22944C9.82178 5.24236 9.88626 5.27108 9.94162 5.3133C9.99598 5.35366 10.0401 5.40621 10.0704 5.46672C10.1007 5.52723 10.1163 5.59401 10.116 5.66166V6.90996C9.96664 6.78213 9.8004 6.67543 9.62193 6.59286C9.36922 6.47542 9.09565 6.40934 8.81713 6.39848C8.53862 6.38762 8.26072 6.43219 7.99961 6.52959C7.9591 6.54455 7.92193 6.56733 7.89023 6.59663C7.85853 6.62594 7.83291 6.66119 7.81485 6.70038C7.79679 6.73957 7.78664 6.78194 7.78497 6.82505C7.78329 6.86816 7.79014 6.91118 7.80511 6.95165C7.82009 6.99212 7.84289 7.02924 7.87223 7.06091C7.90157 7.09257 7.93686 7.11816 7.9761 7.1362C8.01533 7.15424 8.05774 7.16438 8.1009 7.16605C8.14406 7.16772 8.18713 7.16088 8.22765 7.14593C8.5916 7.01181 8.99399 7.02759 9.3463 7.1898C9.69861 7.352 9.97199 7.64735 10.1063 8.01088C10.1091 8.01683 10.1123 8.02255 10.116 8.028V17.7338H9.09208C8.93272 17.7336 8.77994 17.6702 8.66732 17.5576C8.5547 17.4449 8.49145 17.2923 8.49145 17.1331V16.1803C8.4918 15.9256 8.41376 15.6769 8.26789 15.4679C8.57694 15.3093 8.84191 15.0768 9.03916 14.791C9.2364 14.5053 9.35981 14.1753 9.39837 13.8303C9.40326 13.7875 9.39965 13.7441 9.38775 13.7026C9.37585 13.6611 9.35589 13.6224 9.329 13.5886C9.30212 13.5549 9.26884 13.5267 9.23107 13.5058C9.19329 13.4849 9.15176 13.4716 9.10885 13.4667C9.06594 13.4618 9.02248 13.4654 8.98097 13.4773C8.93945 13.4892 8.90068 13.5091 8.86688 13.536C8.83307 13.5628 8.80489 13.5961 8.78395 13.6338C8.76301 13.6715 8.74971 13.713 8.74482 13.7559C8.70116 14.1108 8.52881 14.4374 8.26037 14.6739C7.99192 14.9105 7.64599 15.0405 7.28803 15.0395C6.93006 15.0385 6.58488 14.9065 6.31777 14.6685C6.05067 14.4304 5.88016 14.1028 5.83851 13.7477L5.8333 13.744Z" fill="#F4698F" fill-opacity="0.97"/>
<path d="M2.60299 10.1301H0.313719C0.229169 10.1341 0.149414 10.1705 0.0910006 10.2317C0.0325874 10.2929 0 10.3742 0 10.4587C0 10.5433 0.0325874 10.6246 0.0910006 10.6858C0.149414 10.7469 0.229169 10.7833 0.313719 10.7873H2.60299C2.68754 10.7833 2.7673 10.7469 2.82571 10.6858C2.88413 10.6246 2.91671 10.5433 2.91671 10.4587C2.91671 10.3742 2.88413 10.2929 2.82571 10.2317C2.7673 10.1705 2.68754 10.1341 2.60299 10.1301Z" fill="#F4698F" fill-opacity="0.97"/>
<path d="M7.0529 3.24394L5.8248 1.31455C5.77718 1.24265 5.70321 1.19228 5.6188 1.1743C5.53439 1.15631 5.44629 1.17214 5.37344 1.21837C5.30059 1.26461 5.24882 1.33756 5.22927 1.42152C5.20971 1.50549 5.22394 1.59377 5.26888 1.66738L6.49772 3.59677C6.51984 3.63542 6.54958 3.66919 6.58514 3.69603C6.6207 3.72286 6.66134 3.74221 6.70461 3.7529C6.74787 3.76359 6.79286 3.76539 6.83685 3.75821C6.88083 3.75103 6.9229 3.735 6.9605 3.7111C6.99811 3.6872 7.03046 3.65593 7.05561 3.61918C7.08076 3.58242 7.09819 3.54096 7.10682 3.49728C7.11546 3.45361 7.11514 3.40863 7.10587 3.36509C7.0966 3.32154 7.07858 3.28033 7.0529 3.24394Z" fill="#F4698F" fill-opacity="0.97"/>
<path d="M3.85712 6.25119L1.8309 5.18898C1.79249 5.16702 1.75005 5.15301 1.70611 5.1478C1.66216 5.14259 1.61762 5.14628 1.57513 5.15864C1.53265 5.17101 1.49309 5.1918 1.45883 5.21977C1.42456 5.24774 1.39629 5.28232 1.37571 5.32145C1.35512 5.36058 1.34264 5.40345 1.339 5.4475C1.33537 5.49155 1.34066 5.53589 1.35456 5.57785C1.36846 5.61982 1.39068 5.65856 1.4199 5.69175C1.44912 5.72495 1.48473 5.75193 1.52462 5.77107L3.55158 6.83328C3.58985 6.85332 3.63169 6.86563 3.67471 6.86952C3.71774 6.87341 3.76112 6.86879 3.80236 6.85593C3.8436 6.84308 3.88191 6.82223 3.91508 6.79459C3.94826 6.76695 3.97566 6.73305 3.99572 6.69483C4.01579 6.65661 4.02812 6.61481 4.03201 6.57183C4.0359 6.52885 4.03128 6.48553 4.01841 6.44433C4.00554 6.40314 3.98467 6.36488 3.95699 6.33174C3.92932 6.2986 3.89538 6.27122 3.85712 6.25119Z" fill="#F4698F" fill-opacity="0.97"/>
<path d="M14.774 3.24394L16.0021 1.31455C16.0498 1.24264 16.1237 1.19228 16.2081 1.17429C16.2925 1.15631 16.3807 1.17213 16.4535 1.21837C16.5263 1.2646 16.5781 1.33755 16.5977 1.42152C16.6172 1.50549 16.603 1.59377 16.5581 1.66737L15.3292 3.59677C15.3071 3.63542 15.2774 3.66919 15.2418 3.69602C15.2062 3.72286 15.1656 3.74221 15.1223 3.7529C15.0791 3.76358 15.0341 3.76539 14.9901 3.75821C14.9461 3.75102 14.904 3.735 14.8664 3.7111C14.8288 3.6872 14.7965 3.65593 14.7713 3.61917C14.7462 3.58242 14.7288 3.54095 14.7201 3.49728C14.7115 3.4536 14.7118 3.40863 14.7211 3.36508C14.7303 3.32154 14.7484 3.28033 14.774 3.24394Z" fill="#F4698F" fill-opacity="0.97"/>
<path d="M17.9702 6.25118L19.9964 5.18898C20.0348 5.16702 20.0772 5.15301 20.1212 5.1478C20.1651 5.14259 20.2097 5.14628 20.2522 5.15864C20.2946 5.17101 20.3342 5.1918 20.3685 5.21977C20.4027 5.24774 20.431 5.28232 20.4516 5.32145C20.4722 5.36058 20.4847 5.40345 20.4883 5.4475C20.4919 5.49155 20.4866 5.53589 20.4727 5.57785C20.4588 5.61982 20.4366 5.65856 20.4074 5.69175C20.3782 5.72495 20.3426 5.75193 20.3027 5.77107L18.2757 6.83328C18.2374 6.85332 18.1956 6.86563 18.1526 6.86952C18.1095 6.87341 18.0662 6.86879 18.0249 6.85593C17.9837 6.84308 17.9454 6.82223 17.9122 6.79459C17.879 6.76695 17.8516 6.73305 17.8316 6.69483C17.8115 6.65661 17.7992 6.61481 17.7953 6.57183C17.7914 6.52885 17.796 6.48553 17.8089 6.44433C17.8218 6.40314 17.8426 6.36488 17.8703 6.33174C17.898 6.2986 17.9319 6.27122 17.9702 6.25118Z" fill="#F4698F" fill-opacity="0.97"/>
<path d="M21.3608 10.1301H19.0715C18.987 10.1341 18.9072 10.1705 18.8488 10.2317C18.7904 10.2928 18.7578 10.3741 18.7578 10.4587C18.7578 10.5432 18.7904 10.6246 18.8488 10.6857C18.9072 10.7469 18.987 10.7833 19.0715 10.7873H21.3608C21.4454 10.7833 21.5251 10.7469 21.5835 10.6857C21.6419 10.6246 21.6745 10.5432 21.6745 10.4587C21.6745 10.3741 21.6419 10.2928 21.5835 10.2317C21.5251 10.1705 21.4454 10.1341 21.3608 10.1301Z" fill="#F4698F" fill-opacity="0.97"/>
<path d="M11.1676 2.61198V0.329009C11.1676 0.241751 11.1328 0.158066 11.0711 0.0963645C11.0093 0.0346633 10.9255 0 10.8382 0C10.7508 0 10.667 0.0346633 10.6053 0.0963645C10.5435 0.158066 10.5088 0.241751 10.5088 0.329009V2.61198C10.5088 2.69924 10.5435 2.78292 10.6053 2.84462C10.667 2.90632 10.7508 2.94099 10.8382 2.94099C10.9255 2.94099 11.0093 2.90632 11.0711 2.84462C11.1328 2.78292 11.1676 2.69924 11.1676 2.61198Z" fill="#F4698F" fill-opacity="0.97"/>
</svg>

<svg width="22" height="24" fill="none" xmlns="http://www.w3.org/2000/svg"><path d="M15.01 18.183a.33.33 0 0 0-.329.328c0 .237-.16.43-.357.43h-6.44c-.197 0-.357-.193-.357-.43a.329.329 0 0 0-.658 0c0 .586.437 1.063.98 1.083v.447a.328.328 0 0 0 0 .652v.446a.328.328 0 0 0 0 .652v.084a1.015 1.015 0 0 0 1.015 1.014h.922v.268a.828.828 0 0 0 .828.825h.978a.83.83 0 0 0 .827-.825v-.27h.922a1.017 1.017 0 0 0 1.015-1.014v-.09a.329.329 0 0 0 0-.64v-.458a.329.329 0 0 0 0-.64v-.451c.543-.02.98-.497.98-1.083a.328.328 0 0 0-.325-.328zm-3.25 4.974a.168.168 0 0 1-.168.168h-.978a.17.17 0 0 1-.17-.168v-.27h1.317v.27zm1.581-.927H8.864a.358.358 0 0 1-.357-.357v-.082h.51a.33.33 0 1 0 0-.657h-.51v-.438h.51a.33.33 0 0 0 0-.658h-.51v-.439h5.19v.439h-.62a.33.33 0 1 0 0 .658h.62v.438h-.62a.33.33 0 1 0 0 .657h.62v.082a.356.356 0 0 1-.356.355v.002z" fill="#F4698F" fill-opacity=".97"/><path d="M11.652 20.036h-1.207a.33.33 0 0 0 0 .658h1.207a.33.33 0 0 0 0-.658zM11.653 21.133h-1.207a.33.33 0 0 0 0 .657h1.207a.33.33 0 1 0 0-.657zM11.792 4.398a.329.329 0 0 0-.361.328v13.337a.329.329 0 0 0 .329.329h1.352a1.262 1.262 0 0 0 1.26-1.259v-.952a.607.607 0 0 1 .272-.498 6.305 6.305 0 0 0 2.77-5.216c0-3.196-2.365-5.748-5.622-6.069zm2.482 10.74a1.266 1.266 0 0 0-.56 1.043v.952a.601.601 0 0 1-.602.6h-1.023V5.1c2.725.432 4.666 2.636 4.666 5.367a5.64 5.64 0 0 1-2.48 4.673z" fill="#F4698F" fill-opacity=".97"/><path d="M15.175 11.247a.33.33 0 0 0-.415.21 3.52 3.52 0 0 1-.602 1.106.328.328 0 0 0 .29.543.331.331 0 0 0 .223-.13 4.17 4.17 0 0 0 .712-1.312.329.329 0 0 0-.207-.417zM13.686 6.93a.33.33 0 1 0-.346.56 3.32 3.32 0 0 1 1.585 2.58.33.33 0 0 0 .328.303h.027a.328.328 0 0 0 .298-.354 3.972 3.972 0 0 0-1.892-3.09zM7.517 15.693l.047-.008a.603.603 0 0 1 .269.495v.953a1.26 1.26 0 0 0 1.26 1.26h1.35a.33.33 0 0 0 .33-.33v-12.4a1.084 1.084 0 0 0-.435-.872 1.103 1.103 0 0 0-.969-.181 6.45 6.45 0 0 0-.508.169 2.102 2.102 0 0 0-2.276.448 2.119 2.119 0 0 0-.637 1.466 2.123 2.123 0 0 0-1.637 2.194c.02.33.118.653.286.94a2.113 2.113 0 0 0 .608 3.366 2.116 2.116 0 0 0 2.312 2.5zm-1.684-1.949a1.45 1.45 0 0 1 .007-.36 2.02 2.02 0 0 0 1.087-.134.33.33 0 0 0-.247-.61 1.464 1.464 0 0 1-2.016-1.417 1.46 1.46 0 0 1 .355-.89l.11.094a2.102 2.102 0 0 0 1.935.342c.175.48.52.882.968 1.128a.329.329 0 0 0 .316-.577 1.464 1.464 0 0 1-.584-1.983.329.329 0 0 0-.578-.315c-.183.336-.27.716-.254 1.098A1.464 1.464 0 0 1 4.97 8.936a1.461 1.461 0 0 1 1.06-1.59c.115.38.335.722.634.984a.33.33 0 0 0 .435-.493 1.46 1.46 0 0 1 .968-2.56c.229 0 .455.053.658.156a.33.33 0 0 0 .359-.04c.149-.057.307-.11.463-.154a.448.448 0 0 1 .569.423V6.91a2.145 2.145 0 0 0-1.299-.512A2.105 2.105 0 0 0 8 6.53a.33.33 0 1 0 .228.616 1.464 1.464 0 0 1 1.878.865.126.126 0 0 0 .01.017v9.706H9.092a.602.602 0 0 1-.6-.6v-.954c0-.254-.078-.503-.224-.712a2.104 2.104 0 0 0 1.13-1.638.328.328 0 1 0-.653-.074 1.461 1.461 0 0 1-1.457 1.284 1.465 1.465 0 0 1-1.45-1.292l-.005-.004zM2.603 10.13H.313a.33.33 0 0 0 0 .657h2.29a.33.33 0 0 0 0-.657zM7.053 3.244l-1.228-1.93a.33.33 0 0 0-.556.353l1.229 1.93a.33.33 0 1 0 .555-.353zM3.857 6.251 1.831 5.19a.33.33 0 1 0-.306.582l2.027 1.062a.33.33 0 0 0 .305-.582zM14.774 3.244l1.228-1.93a.33.33 0 0 1 .556.353l-1.229 1.93a.328.328 0 0 1-.558.022.33.33 0 0 1 .003-.375zM17.97 6.251l2.026-1.062a.33.33 0 1 1 .307.582l-2.027 1.062a.33.33 0 0 1-.306-.582zM21.36 10.13h-2.288a.33.33 0 0 0 0 .657h2.289a.33.33 0 0 0 0-.657zM11.168 2.612V.329a.33.33 0 0 0-.66 0v2.283a.329.329 0 0 0 .66 0z" fill="#F4698F" fill-opacity=".97"/></svg>
